X:1
T:Brave Willy Forster
M:2/4
L:1/8
R:March or Polka
B:Cocks - Tutor for the Northumbrian Half-Long Bagpipes (1925, No. 26, p. 14)
Z:AK/Fiddler's Companion
K:D
d2 fe/d/|ad f2|ec/d/ ec|ac e2|
d2 fe/d/|ad f2|g/f/e/d/ c/d/e/c/|d2A2:|
|:f/g/a fd|f/g/a f2|eaec|ea e2|
f/g/a/g/ f/g/a/g/|f/g/a/g/ fd|g/f/e/d/ c/d/e/c/|d2 A2:|]

